X:1
T:Symphony No. 6 "Pastoral" (1st mvt theme)
C:Ludwig van Beethoven
O:Germany
M:3/4
L:1/8
Q:1/4=112
K:F
% Op. 68, 1st mvt — Allegro ma non troppo, "Awakening of cheerful feelings on arriving in the country"
F2 A2 c2 | B2 A2 G2 | F2 G2 A2 | F4 z2 |
F2 A2 c2 | d2 c2 B2 | A2 G2 F2 | G4 z2 |
F2 G2 A2 | F6        |]
